package/converter/svg/thin/high-definition.svg

<svg xmlns="http://www.w3.org/2000/svg" viewBox="0 0 576 512"><!-- Font Awesome Pro 6.0.0-alpha2 by @fontawesome - https://fontawesome.com License - https://fontawesome.com/license (Commercial License) --><path d="M512 32H64C28.654 32 0 60.652 0 96V416C0 451.346 28.654 480 64 480H512C547.346 480 576 451.346 576 416V96C576 60.652 547.346 32 512 32ZM560 416C560 442.467 538.467 464 512 464H64C37.533 464 16 442.467 16 416V96C16 69.533 37.533 48 64 48H512C538.467 48 560 69.533 560 96V416ZM264 160C259.594 160 256 163.578 256 168V248H128V168C128 163.578 124.406 160 120 160S112 163.578 112 168V344C112 348.422 115.594 352 120 352S128 348.422 128 344V264H256V344C256 348.422 259.594 352 264 352S272 348.422 272 344V168C272 163.578 268.406 160 264 160ZM384 160H328C323.594 160 320 163.578 320 168V344C320 348.422 323.594 352 328 352H384C436.938 352 480 308.938 480 256S436.938 160 384 160ZM384 336H336V176H384C428.125 176 464 211.891 464 256S428.125 336 384 336Z"/></svg>

<svg xmlns="http://www.w3.org/2000/svg" viewBox="0 0 576 512"><!--! Font Awesome Pro 6.6.0 by @fontawesome - https://fontawesome.com License - https://fontawesome.com/license (Commercial License) Copyright 2024 Fonticons, Inc. --><path d="M512 48c26.5 0 48 21.5 48 48l0 320c0 26.5-21.5 48-48 48L64 464c-26.5 0-48-21.5-48-48L16 96c0-26.5 21.5-48 48-48l448 0zM64 32C28.7 32 0 60.7 0 96L0 416c0 35.3 28.7 64 64 64l448 0c35.3 0 64-28.7 64-64l0-320c0-35.3-28.7-64-64-64L64 32zM320 168l0 176c0 4.4 3.6 8 8 8l56 0c53 0 96-43 96-96s-43-96-96-96l-56 0c-4.4 0-8 3.6-8 8zm64 8c44.2 0 80 35.8 80 80s-35.8 80-80 80l-48 0 0-160 48 0zm-256-8c0-4.4-3.6-8-8-8s-8 3.6-8 8l0 88 0 88c0 4.4 3.6 8 8 8s8-3.6 8-8l0-80 128 0 0 80c0 4.4 3.6 8 8 8s8-3.6 8-8l0-88 0-88c0-4.4-3.6-8-8-8s-8 3.6-8 8l0 80-128 0 0-80z"/></svg>
